public/img/svg/luggage.svg

<!-- Generated by IcoMoon.io -->
<svg version="1.1" xmlns="http://www.w3.org/2000/svg" width="18" height="32" viewBox="0 0 18 32">
<title>luggage</title>
<path d="M15.478 8.533h-3.2v-5.867h1.067c0.295 0 0.533-0.239 0.533-0.533v-1.6c0-0.295-0.239-0.533-0.533-0.533h-8.533c-0.295 0-0.533 0.239-0.533 0.533v1.6c0 0.295 0.239 0.533 0.533 0.533h1.067v5.867h-3.2c-1.472 0.002-2.665 1.195-2.667 2.667v16.533c0.002 1.472 1.195 2.665 2.667 2.667v1.067c0 0.295 0.239 0.533 0.533 0.533h2.133c0.295 0 0.533-0.239 0.533-0.533v-1.067h6.4v1.067c0 0.295 0.239 0.533 0.533 0.533h2.133c0.295 0 0.533-0.239 0.533-0.533v-1.067c1.472-0.002 2.665-1.195 2.667-2.667v-16.533c-0.002-1.472-1.195-2.665-2.667-2.667zM5.345 1.067h7.467v0.533h-7.467zM6.945 2.667h4.267v5.867h-4.267zM4.811 30.933h-1.067v-0.533h1.067zM14.411 30.933h-1.067v-0.533h1.067zM17.078 27.733c0 0.884-0.716 1.6-1.6 1.6h-12.8c-0.884 0-1.6-0.716-1.6-1.6v-16.533c0-0.884 0.716-1.6 1.6-1.6h12.8c0.884 0 1.6 0.716 1.6 1.6z"></path>
<path d="M9.078 10.667c-0.295 0-0.533 0.239-0.533 0.533v16.533c0 0.295 0.239 0.533 0.533 0.533s0.533-0.239 0.533-0.533v-16.533c0-0.295-0.239-0.533-0.533-0.533z"></path>
<path d="M13.345 11.733c-0.295 0-0.533 0.239-0.533 0.533v14.4c0 0.295 0.239 0.533 0.533 0.533s0.533-0.239 0.533-0.533v-14.4c0-0.295-0.239-0.533-0.533-0.533z"></path>
<path d="M4.812 11.733c-0.295 0-0.533 0.239-0.533 0.533v14.4c0 0.295 0.239 0.533 0.533 0.533s0.533-0.239 0.533-0.533v-14.4c0-0.295-0.239-0.533-0.533-0.533z"></path>
</svg>

<svg xmlns="http://www.w3.org/2000/svg" width="18" height="32" viewBox="0 0 18 32"><path d="M15.478 8.533h-3.2V2.666h1.067a.533.533 0 00.533-.533v-1.6A.533.533 0 0013.345 0H4.812a.533.533 0 00-.533.533v1.6c0 .295.239.533.533.533h1.067v5.867h-3.2A2.67 2.67 0 00.012 11.2v16.533A2.67 2.67 0 002.679 30.4v1.067c0 .295.239.533.533.533h2.133a.533.533 0 00.533-.533V30.4h6.4v1.067c0 .295.239.533.533.533h2.133a.533.533 0 00.533-.533V30.4a2.67 2.67 0 002.667-2.667V11.2a2.67 2.67 0 00-2.667-2.667zM5.345 1.067h7.467V1.6H5.345zm1.6 1.6h4.267v5.867H6.945zM4.811 30.933H3.744V30.4h1.067zm9.6 0h-1.067V30.4h1.067zm2.667-3.2a1.6 1.6 0 01-1.6 1.6h-12.8a1.6 1.6 0 01-1.6-1.6V11.2a1.6 1.6 0 011.6-1.6h12.8a1.6 1.6 0 011.6 1.6z"/><path d="M9.078 10.667a.533.533 0 00-.533.533v16.533a.533.533 0 101.066 0V11.2a.533.533 0 00-.533-.533zm4.267 1.066a.533.533 0 00-.533.533v14.4a.533.533 0 101.066 0v-14.4a.533.533 0 00-.533-.533zm-8.533 0a.533.533 0 00-.533.533v14.4a.533.533 0 101.066 0v-14.4a.533.533 0 00-.533-.533z"/></svg>
